X:315
T:Reel 315
M:4/4
K:Dmaj
L:1/8
AG|FDDF A2GF|GABd cAAG|FDDF A2AF|GBAF E2AG|FDDF A2GF|GABG E2EG|FDDF AFDF|GBAF D2|DE|FAdc B2GF|EAAF GEEG|FDDA d2Bc|dBAG FDDG|FGFA D2ED|EA,EF G2Bd|FGAD DDDB,|EA,A,C D2|
